public/sheesh/vuesaxbulkdiscountshape.svg

<svg fill="none" height="32" viewBox="0 0 32 32" width="32" xmlns="http://www.w3.org/2000/svg" xmlns:xlink="http://www.w3.org/1999/xlink"><linearGradient id="a"><stop offset="0" stop-color="#34c796"/><stop offset="1" stop-color="#0b7a55"/></linearGradient><linearGradient id="b" gradientUnits="userSpaceOnUse" x1="15.9872" x2="15.9872" xlink:href="#a" y1="2.7002" y2="29.3269"/><linearGradient id="c" gradientUnits="userSpaceOnUse" x1="15.9935" x2="15.9935" xlink:href="#a" y1="10.667" y2="21.3337"/><path d="m5.32048 19.5468-2.02665-2.0266c-.82667-.8266-.82667-2.1867 0-3.0133l2.02665-2.0267c.34667-.3467.62667-1.0267.62667-1.5067v-2.8666c0-1.17334.96001-2.13338 2.13334-2.13338h2.86661c.48 0 1.1601-.27997 1.5067-.62663l2.0267-2.02669c.8266-.82667 2.1867-.82667 3.0133 0l2.0267 2.02669c.3467.34666 1.0266.62663 1.5066.62663h2.8667c1.1734 0 2.1333.96004 2.1333 2.13338v2.8666c0 .48.28 1.16.6267 1.5067l2.0267 2.0267c.8267.8266.8267 2.1867 0 3.0133l-2.0267 2.0266c-.3467.3467-.6267 1.0267-.6267 1.5067v2.8667c0 1.1733-.9599 2.1333-2.1333 2.1333h-2.8667c-.48 0-1.1599.2801-1.5066.6267l-2.0267 2.0267c-.8266.8267-2.1867.8267-3.0133 0l-2.0267-2.0267c-.3466-.3466-1.0267-.6267-1.5067-.6267h-2.86661c-1.17333 0-2.13334-.96-2.13334-2.1333v-2.8667c0-.4933-.28-1.1733-.62667-1.5067z" fill="url(#b)" opacity=".4"/><path clip-rule="evenodd" d="m12.0137 13.3337c-.7467 0-1.3467-.6-1.3467-1.3334 0-.7333.6-1.3333 1.3333-1.3333.7334 0 1.3334.6 1.3334 1.3333 0 .7334-.5867 1.3334-1.32 1.3334zm7.9863 8c-.7467 0-1.3467-.6-1.3467-1.3334 0-.7333.6-1.3333 1.3334-1.3333.7333 0 1.3333.6 1.3333 1.3333 0 .7334-.5867 1.3334-1.32 1.3334zm-8.7071-.6274c.2.2.4534.2933.7067.2933s.5067-.0933.7067-.2933l8-8c.3866-.3866.3866-1.0267 0-1.4134-.3867-.3866-1.0267-.3866-1.4134 0l-8 8c-.3866.3867-.3866 1.0268 0 1.4134z" fill="url(#c)" fill-rule="evenodd"/></svg>

<svg width="32" height="32" viewBox="0 0 32 32" fill="none" xmlns="http://www.w3.org/2000/svg">
<path opacity="0.4" d="M5.32048 19.5468L3.29383 17.5202C2.46716 16.6936 2.46716 15.3335 3.29383 14.5069L5.32048 12.4802C5.66715 12.1335 5.94715 11.4535 5.94715 10.9735V8.1069C5.94715 6.93356 6.90716 5.97352 8.08049 5.97352H10.9471C11.4271 5.97352 12.1072 5.69355 12.4538 5.34689L14.4805 3.3202C15.3071 2.49353 16.6672 2.49353 17.4938 3.3202L19.5205 5.34689C19.8672 5.69355 20.5471 5.97352 21.0271 5.97352H23.8938C25.0672 5.97352 26.0271 6.93356 26.0271 8.1069V10.9735C26.0271 11.4535 26.3071 12.1335 26.6538 12.4802L28.6805 14.5069C29.5072 15.3335 29.5072 16.6936 28.6805 17.5202L26.6538 19.5468C26.3071 19.8935 26.0271 20.5735 26.0271 21.0535V23.9202C26.0271 25.0935 25.0672 26.0535 23.8938 26.0535H21.0271C20.5471 26.0535 19.8672 26.3336 19.5205 26.6802L17.4938 28.7069C16.6672 29.5336 15.3071 29.5336 14.4805 28.7069L12.4538 26.6802C12.1072 26.3336 11.4271 26.0535 10.9471 26.0535H8.08049C6.90716 26.0535 5.94715 25.0935 5.94715 23.9202V21.0535C5.94715 20.5602 5.66715 19.8802 5.32048 19.5468Z" fill="url(#paint0_linear_298_13571)"/>
<path fill-rule="evenodd" clip-rule="evenodd" d="M12.0137 13.3337C11.267 13.3337 10.667 12.7337 10.667 12.0003C10.667 11.267 11.267 10.667 12.0003 10.667C12.7337 10.667 13.3337 11.267 13.3337 12.0003C13.3337 12.7337 12.747 13.3337 12.0137 13.3337ZM20 21.3337C19.2533 21.3337 18.6533 20.7337 18.6533 20.0003C18.6533 19.267 19.2533 18.667 19.9867 18.667C20.72 18.667 21.32 19.267 21.32 20.0003C21.32 20.7337 20.7333 21.3337 20 21.3337ZM11.2929 20.7063C11.4929 20.9063 11.7463 20.9996 11.9996 20.9996C12.2529 20.9996 12.5063 20.9063 12.7063 20.7063L20.7063 12.7063C21.0929 12.3197 21.0929 11.6796 20.7063 11.2929C20.3196 10.9063 19.6796 10.9063 19.2929 11.2929L11.2929 19.2929C10.9063 19.6796 10.9063 20.3197 11.2929 20.7063Z" fill="url(#paint1_linear_298_13571)"/>
<defs>
<linearGradient id="paint0_linear_298_13571" x1="15.9872" y1="2.7002" x2="15.9872" y2="29.3269" gradientUnits="userSpaceOnUse">
<stop stop-color="#34C796"/>
<stop offset="1" stop-color="#0B7A55"/>
</linearGradient>
<linearGradient id="paint1_linear_298_13571" x1="15.9935" y1="10.667" x2="15.9935" y2="21.3337" gradientUnits="userSpaceOnUse">
<stop stop-color="#34C796"/>
<stop offset="1" stop-color="#0B7A55"/>
</linearGradient>
</defs>
</svg>
